app/img/icon-fb.svg

<svg width="22" height="22" viewBox="0 0 22 22" fill="none" xmlns="http://www.w3.org/2000/svg">
    <path d="M0 11C0 4.92487 4.92487 0 11 0C17.0751 0 22 4.92487 22 11C22 17.0751 17.0751 22 11 22C4.92487 22 0 17.0751 0 11Z"
          />
    <path d="M12.3197 22V13.499H14.6864L15 10.5695H12.3197L12.3237 9.10328C12.3237 8.33922 12.3969 7.92982 13.5037 7.92982H14.9832V5H12.6162C9.773 5 8.77227 6.42112 8.77227 8.81099V10.5698H7V13.4993H8.77227V22H12.3197Z"
          fill="white"/>
</svg>

<svg width="22" height="22" fill="none" xmlns="http://www.w3.org/2000/svg"><path d="M0 11C0 4.925 4.925 0 11 0s11 4.925 11 11-4.925 11-11 11S0 17.075 0 11z"/><path d="M12.32 22v-8.501h2.366l.314-2.93h-2.68l.004-1.466c0-.764.073-1.173 1.18-1.173h1.48V5h-2.368C9.773 5 8.772 6.421 8.772 8.811v1.759H7v2.93h1.772V22h3.548z" fill="#fff"/></svg>
